assets/svgs/misc-grey/MiscGrey55.svg

<svg width="35" height="46" viewBox="0 0 35 46" fill="none" xmlns="http://www.w3.org/2000/svg">
<path fill-rule="evenodd" clip-rule="evenodd" d="M16.124 33.19V34.97C16.124 35.8 16.795 36.47 17.624 36.47C18.452 36.47 19.124 35.8 19.124 34.97V33.18C20.043 32.65 20.671 31.67 20.671 30.54C20.671 28.86 19.304 27.49 17.624 27.49C15.943 27.49 14.576 28.86 14.576 30.54C14.576 31.65 15.175 32.65 16.124 33.19ZM31.577 38.81C31.577 39.16 31.493 42.18 28.582 42.29C24.232 42.47 6.93998 42.31 6.72698 42.31C6.45898 42.31 4.11498 42.19 3.66998 38.22V21.59H31.577V38.81ZM33.077 18.59H8.84598L8.84398 11.58C8.85898 11.25 9.31498 3.40002 17.401 3.40002C20.737 3.40002 23.101 4.71002 24.428 7.29002C25.476 9.33002 25.513 11.45 25.514 11.51C25.516 12.34 26.187 13.01 27.014 13.01C27.842 13.01 28.514 12.34 28.514 11.51C28.514 7.67002 26.191 0.400024 17.401 0.400024C8.66598 0.400024 6.02298 7.62002 5.84598 11.51V18.59H2.16998C1.34198 18.59 0.669983 19.26 0.669983 20.09V38.3C0.669983 38.35 0.672983 38.4 0.678983 38.45C1.26198 44.03 4.93198 45.36 6.73898 45.31C7.19298 45.31 14.177 45.38 20.333 45.38C23.847 45.38 27.091 45.36 28.698 45.29C33.348 45.11 34.577 40.98 34.577 38.81V20.09C34.577 19.26 33.905 18.59 33.077 18.59Z" fill="#1A1919"/>
</svg>

<svg xmlns="http://www.w3.org/2000/svg" fill="none" viewBox="0 0 35 46"><path fill="#1A1919" fill-rule="evenodd" d="M16.124 33.19v1.78a1.5 1.5 0 103 0v-1.79c.919-.53 1.547-1.51 1.547-2.64 0-1.68-1.367-3.05-3.047-3.05a3.053 3.053 0 00-3.048 3.05c0 1.11.599 2.11 1.548 2.65zm15.453 5.62c0 .35-.084 3.37-2.995 3.48-4.35.18-21.642.02-21.855.02-.268 0-2.612-.12-3.057-4.09V21.59h27.907v17.22zm1.5-20.22H8.846l-.002-7.01c.015-.33.471-8.18 8.557-8.18 3.336 0 5.7 1.31 7.027 3.89 1.048 2.04 1.085 4.16 1.086 4.22a1.501 1.501 0 003 0C28.514 7.67 26.191.4 17.401.4 8.666.4 6.023 7.62 5.846 11.51v7.08H2.17a1.5 1.5 0 00-1.5 1.5V38.3c0 .05.003.1.009.15.583 5.58 4.253 6.91 6.06 6.86.454 0 7.438.07 13.594.07 3.514 0 6.758-.02 8.365-.09 4.65-.18 5.879-4.31 5.879-6.48V20.09a1.5 1.5 0 00-1.5-1.5z" clip-rule="evenodd"/></svg>
